!!!COM: Hugo Wolf
!!!CNT: Deutscher
!!!TXO: Deutsche 
!!!OTL: Auf einer Wanderung
!!!ONM: No. 12
!!!ODT: 1888/
!!!LYR: Moericke
!!!ENC: Brian Bice
!!!YOR: 65 Songs for voice and piano, International Music Company, 1960
!!NB: Vocal melody and text only encoded.
**kern	**silbe
*clefG2	*
*k[b-e-a-]	*
*M6/8	*
=5	=5
8r	.
{8cc	{In
8dd	ein
8.ee-	freund-
16b-	-li-
8g	-ches
=6	=6
4a-	Sta2dt-
8a-	-chen
4g	tret
8cc	ich
=7	=7
[4.f	ein,
8f]}	|}
8r	.
8r	.
=8	=8
8r	.
{8g-	{in
8g-	den
4g-	Stra-
8g-	-ssen
=9	=9
4.g-	liegt
4a-	ro-
8b-	-ter
=10	=10
4cc-	A-
8c-	-bend-
[4.c-	-schein.
=11	=11
4.c-]}	|}
4r	.
8r	.
=13	=13
{8an	{Aus
8an	ei-
8an	-nem
4bn	off-
8cc#	-nen
=14	=14
4an	Fen-
8an	-ster
4g	e-
8en	-ben,
=15	=15
8f#	u2-
8g	-ber
8an	den
4bn	reich-
8bn	-sten
=16	=16
4een	Blu-
8dd	-men-
8cc#	-flor
8bn	|
8an	hin-
=17	=17
4a-}	-weg,}
8r	.
{4a-	{ho2rt
8a-	man
=18	=18
(4a-	Gold-
8dd-)	|
4dd-	-glo-
8cc	-cken-
=19	=19
([4.b-	-to2-
8b-]	|
8cc)	|
8b-	-ne
=20	=20
4b-	schwe-
8e-}	-ben,}
4r	.
8r	.
=21	=21
4r	.
{[8cc	{und
8cc]	|
8cc	ei-
8bn	-ne
=22	=22
4b-	Stim-
8b-	-me
8bn	scheint
8cc	|
8dd	ein
=23	=23
[2.ee	Nach-
=24	=24
4ee]	|
8bn	-ti-
8an	-gal-
8g#	|
8f#	-len-
=25	=25
[4.en	-chor,
8en]}	|}
8r	.
8r	.
=26	=26
4r	.
8r	.
8r	.
{8d#	{dass
8en	die
=27	=27
[4.dd-	Blu2-
4dd-]	|
8cc	-ten
=28	=28
4cc	be-
8b-}	-ben,}
4r	.
8r	.
=29	=29
8r	.
{8gn	{dass
8a-	die
4ee-	Lu2f-
8ddn	-te
=30	=30
4dd-	le-
8cc}	-ben,}
4r	.
8r	.
=31	=31
8r	.
{8a-	{dass
8a-	in
8.ggn	ho2-
16ff	-he-
8ff	-rem
=32	=32
4ee-	Rot
8e-	die
[4.ddn	Ro-
=33	=33
4ddn]	|
8cc	-sen
4b-	leuch-
8d	-ten
=34	=34
4.e-}	vor.}
4r	.
8r	.
=48	=48
4r	.
8r	.
4r	.
{[8cc	{Lang
=49	=49
4.cc]	|
4b-	hielt
8a-	ich
=50	=50
4g	stau-
8f	-nend,
4r	.
8r	.
=51	=51
4r	.
[8cc	lust-
4cc]	|
8b-	-be-
=52	=52
4a-	-klom-
8g}	-men.}
4r	.
8r	.
=55	=55
{8c	{Wie
8c	ich
8c	hin-
4c	-aus
8c	vors
=56	=56
4c	Tor
8f	ge-
4f	-kom-
8g}	-men,}
=57	=57
4r	.
{8an	{ich
4cc	weiss
8cc	es
=58	=58
4an	wahr-
8g	-lich
8f	sel-
8en	|
8d#	-ber
=59	=59
[4.en	nicht.
4en]}	|}
8r	.
=63	=63
4r	.
8r	.
4r	.
{8dd	{Ach
=64	=64
[4.dd	hier,
8dd]	|
8r	.
8ee-	wie
=65	=65
4dd	liegt
8dd	die
4cc	Welt
8b-	so
=66	=66
[2.dd	licht!
=67	=67
8dd]}	|}
8r	.
8r	.
4r	.
{8an	{Der
=68	=68
4b-	Him-
8b-	-mel
4b-	wogt
8b-	in
=69	=69
4an	pur-
[8an	-pur-
8an]	|
8an	-nem
8dd	Ge-
=70	=70
4dd	-wu2h-
8cc#}	-le,}
4r	.
8r	.
=71	=71
{4.c#	{ru2ck-
4c#	-wa2rts
8c#	die
=72	=72
4dd	Stadt
8dd	in
8f	gold-
8g-	|
8f	-nem
=73	=73
4.d}	Rauch;}
4r	.
{8dd	{wie
=74	=74
4dd	rauscht
8cc	der
4dd	Er-
8cc	-len-
=75	=75
4.b-}	-bach,}
4r	.
{8dd	{wie
=76	=76
4dd	rauscht
8cc	im
4dd	Grund
8cc	die
=77	=77
4cc	Mu2h-
8bn}	-le,}
4r	.
8r	.
=78	=78
4r	.
{8a-	{ich
4a-	bin
8a-	wie
=79	=79
4ee-	trun-
8dd	-ken,
8r	.
[4ff	irr-
=80	=80
4ff]	|
8a-	-ge-
(4a-	-fu2hrt,
8an)}	|}
=82	=82
4r	.
8r	.
4r	.
{8ee-	{o
=83	=83
[2.ee-	Mu-
=84	=84
4.ee-]	|
4f}	-se,}
8r	.
=85	=85
8.r	.
{8.b-	{du
[4.b-	hast
=86	=86
8.b-]	|
8.b-	mein
8.cc	Herz
8.dd-	be-
=87	=87
8.cc	-ru2hrt
8.e-	mit
8.e-	ei-
8.e-	-nem
=88	=88
([2.g	Lie-
=89	=89
4.g]	|
4f)	|
8e-	-bes-
=90	=90
[2.e-	-hauch!
=91	=91
8e-]}	|}
8r	.
8r	.
4r	.
8r	.
*-	*-
